X: 386
T: Fanshen xiaochang
%%abc-version 2.0
%%abcx-abcm2ps-target-version 5.9.1 (29 Sep 2008)
%%abc-creator hum2abc beta
%%abcx-conversion-date 2013/10/02 07:52:30
%%abc-edited-by Helmut Schaffrath
%%humdrum-veritas 2502853739
%%humdrum-veritas-data 1577042765
%%continueall 1
%%barnumbers 0
L: 1/8
M: 2/4
K: G
d> eg2 [I:setbarnb 1]| 
f e d B | 
e g d B | 
A3B | 
d> eg2 | 
f e d B | 
e g d B | 
A4 | 
A> Bd2 | 
B> g e d | 
B A/ B/ d e | 
G2F E | 
D> D d d | 
B AG2 | 
A B G E | 
D4 |]  



